X:1
T:Mister Speaker, though 'tis late
T:Joseph Baildon (c1727-1774)
T:Words by John Montagu, 4th Earl of Sandwich (1718-1792) 
T:Mister Speaker, though 'tis late
T:Catch
C:Joseph Baildon (c1727-1774)
Z:Words by John Montagu,
Z:4th Earl of Sandwich (1718-1792)
Z:
%%score [ 1 2 3 ]
L:1/8
M:6/8
K:C
V:1 treble transpose=-12 nm="P1"
V:2 treble transpose=-12 nm="P2"
V:3 treble transpose=-12 nm="P3"
V:1
"^1""^Original notation" c2 G | E2 C C2 E | G3 e2 c | B2 G (GA)G | c3 (ED)C | !fermata!G3 c2 d | %6
w: Mis- ter|Speak- er, though 'tis|late, Mis- ter|Speak- er, * though 'tis|late, though _ 'tis|late, I must|
 e3- e3- | e2 e{e} d2 ^c | d3 B2 ^c | d3- d3- | d2 d c2 B | c3 c2 c | A2 A d2 d | B3 e2 d | %14
w: length- *|* en * de-|bate, I must|length- *|* then the de-|bate, Mis- ter|Speak- er, though 'tis|late, I must|
 (cd)e (dc)B | c3 ||"^1" x6 |"^Possible performance" c2 G | E2 C C2 E | G3 e2 c | B2 G (GA)G | %21
w: length- * en the _ de-|bate.||Mis- ter|Speak- er, though 'tis|late, Mis- ter|Speak- er, though * 'tis|
 c3 (ED)C | !fermata!G3 c2 d | e3- e3- | e2 e{e} d2 ^c | d3 B2 ^c | d3- d3- | d2 d c2 B | c3 c2 c | %29
w: late, though _ 'tis|late, I must|length- *|* en * de-|bate, I must|length- *|* then the de-|bate, Mis- ter|
 A2 A d2 d | B3 e2 d | (cd)e (dc)B | c3 | z2!f! z | c2 G c2 G | d2 B z2 z | d2 B d2 G | e2 c G2 c | %38
w: Speak- er, though 'tis|late, I must|length- * en the _ de-|bate.||Ques- tion, ques- tion,|ques- tion,|ques- tion, ques- tion,|hear him! Hear him!|
 !fermata!B3 z2 z | z2!mp! z EFG | (AB)^c d2 A | D3 z FE | D3 DEF | (GA)B c2 G | C3 CDE | %45
w: hear!|Sir, I shall|name _ you if you|stir, if you|stir, Sir, I shall|name _ you if you|stir, Sir I shall|
 F2 F DEF | G2 G EFG | A2 E F2 G | C3 | z2 z | z2 z!ff! e2 c | g2 d g2!ffff! e | g2 d g2 d | %53
w: name you, Sir I shall|name you, Sir I shall|name you if you|stir.||Or- der,|or- der, or- der,|hear him! hear him!|
 g2 e (gf)e |!mp! !fermata!d3 e2 f | g2 g g3 | g2 g{g} f2 e | f3 d2 e | f2 f f3 | f2 f e2 d | %60
w: hear him! hear _ him!|hear! pray sup-|port the chair,|pray sup- * the|chair, pray sup-|port the chair,|pray sup- port the|
 e3 e2 e | c2 c f2 f | d3 g2 f | (ef)g (fe)d | e3 | c2 G | E2 C C2 E | G3 e2 c | B2 G (GA)G | %69
w: chair, Ques- tion,|Or- der, hear him!|hear! pray sup-|port, _ sup- port _ the|chair.|Mis- ter|Speak- er, though 'tis|late, Mis- ter|Speak- er, though * 'tis|
 c3 (ED)C | !fermata!G3 c2 d | e3- e3- | e2 e{e} d2 ^c | d3 B2 ^c | d3- d3- | d2 d c2 B | c3 c2 c | %77
w: late, though _ 'tis|late, I must|length- *|* en * de-|bate, I must|length- *|* then the de-|bate, Mis- ter|
 A2 A d2 d | B3 e2 d | (cd)e (dc)B | c3 | z2!f! z | c2 G c2 G | d2 B z2 z | d2 B d2 G | e2 c G2 c | %86
w: Speak- er, though 'tis|late, I must|length- * en the _ de-|bate.||Ques- tion, ques- tion,|ques- tion,|ques- tion, ques- tion,|hear him! Hear him!|
 !fermata!B3 z2 z | z3!mp! EFG | (AB)^c d2 A | D3 z FE | D3 DEF | (GA)B c2 G | C3 CDE | F2 F DEF | %94
w: hear!|Sir, I shall|name _ you if you|stir, if you|stir, Sir, I shall|name _ you if you|stir, Sir I shall|name you, Sir I shall|
 G2 G EFG | A2 E F2 G | C3 | x6 | %98
w: name you, Sir I shall|name you if you|stir...||
V:2
"^2" z2!f! z | c2 G c2 G | d2 B z3 | d2 B d2 G | e2 c G2 c | !fermata!B3 z2 z | z2!mp! z EFG | %7
w: |Ques- tion, ques- tion,|ques- tion,|ques- tion, ques- tion,|hear him! Hear him!|hear!|Sir, I shall|
 (AB)^c d2 A | D3 z FE | D3 DEF | (GA)B c2 G | C3 CDE | F2 F DEF | G2 G EFG | A2 E F2 G | C3 || %16
w: name _ you if you|stir, if you|stir, Sir, I shall|name _ you if you|stir, Sir I shall|name you, Sir I shall|name you, Sir I shall|name you if you|stir.|
"^2" x6 | z3 | z6 | z6 | z6 | z6 | z6 | z6 | z6 | z6 | z6 | z6 | z6 | z6 | z6 | z6 | z3 | c2 G | %34
w: |||||||||||||||||Mis- ter|
 E2 C C2 E | G3 e2 c | B2 G (GA)G | c3 (ED)C | !fermata!G3 c2 d | e3- e3- | e2 e{e} d2 ^c | %41
w: Speak- er, though 'tis|late, Mis- ter|Speak- er, though * 'tis|late, though _ 'tis|late, I must|length- *|* en * de-|
 d3 B2 ^c | d3- d3- | d2 d c2 B | c3 c2 c | A2 A d2 d | B3 e2 d | (cd)e (dc)B | c3 | z2!f! z | %50
w: bate, I must|length- *|* then the de-|bate, Mis- ter|Speak- er, though 'tis|late, I must|length- * en the _ de-|bate.||
 c2 G c2 G | d2 B z3 | d2 B d2 G | e2 c G2 c | !fermata!B3 z3 | z2!mp! z EFG | (AB)^c d2 A | %57
w: Ques- tion, ques- tion,|ques- tion,|ques- tion, ques- tion,|hear him! Hear him!|hear!|Sir, I shall|name _ you if you|
 D3 z FE | D3 DEF | (GA)B c2 G | C3 CDE | F2 F DEF | G2 G EFG | A2 E F2 G | C3 | z2 z | %66
w: stir, if you|stir, Sir, I shall|name _ you if you|stir, Sir I shall|name you, Sir I shall|name you, Sir I shall|name you if you|stir.||
 z2!ff! z e2 c | g2 d g2!ffff! e | g2 d g2 d | g2 e (gf)e | !fermata!d3!mp! e2 f | g2 g g3 | %72
w: Or- der,|or- der, or- der,|hear him! hear him!|hear him! hear _ him!|hear! pray sup-|port the chair,|
 g2 g{g} f2 e | f3 d2 e | f2 f f3 | f2 f e2 d | e3 e2 e | c2 c f2 f | d3 g2 f | (ef)g (fe)d | e3 | %81
w: pray sup- * the|chair, pray sup-|port the chair,|pray sup- port the|chair, Ques- tion,|Or- der, hear him!|hear! pray sup-|port, _ sup- port _ the|chair.|
 c2 G | E2 C C2 E | G3 e2 c | B2 G (GA)G | c3 (ED)C | !fermata!G3 c2 d | e3- e3- | e2 e{e} d2 ^c | %89
w: Mis- ter|Speak- er, though 'tis|late, Mis- ter|Speak- er, though * 'tis|late, though _ 'tis|late, I must|length- *|* en * de-|
 d3 B2 ^c | d3- d3- | d2 d c2 B | c3 c2 c | A2 A d2 d | B3 e2 d | (cd)e (dc)B | c3 | x6 | %98
w: bate, I must|length- *|* then the de-|bate, Mis- ter|Speak- er, though 'tis|late, I must|length- * en the _ de-|bate...||
V:3
"^3" z2 z | z2!ff! z e2 c | g2 d g2!ffff! e | g2 d g2 d | g2 e (gf)e | !fermata!d3!mp! e2 f | %6
w: |Or- der,|or- der, or- der,|hear him! hear him!|hear him! hear _ him!|hear! pray sup-|
 g2 g g3 | g2 g{g} f2 e | f3 d2 e | f2 f f3 | f2 f e2 d | e3 e2 e | c2 c f2 f | d3 g2 f | %14
w: port the chair,|pray sup- * the|chair, pray sup-|port the chair,|pray sup- port the|chair, Ques- tion,|Or- der, hear him!|hear! pray sup-|
 (ef)g (fe)d | e3 ||"^1" x6 | z3 | z6 | z6 | z6 | z6 | z6 | z6 | z6 | z6 | z6 | z6 | z6 | z6 | z6 | %31
w: port, _ sup- port _ the|chair.||||||||||||||||
 z6 | z3 | z3 | z6 | z6 | z6 | z6 | z6 | z6 | z6 | z6 | z6 | z6 | z6 | z6 | z6 | z6 | z3 | c2 G | %50
w: ||||||||||||||||||Mis- ter|
 E2 C C2 E | G3 e2 c | B2 G (GA)G | c3 (ED)C | !fermata!G3 c2 d | e3- e3- | e2 e{e} d2 ^c | %57
w: Speak- er, though 'tis|late, Mis- ter|Speak- er, though * 'tis|late, though _ 'tis|late, I must|length- *|* en * de-|
 d3 B2 ^c | d3- d3- | d2 d c2 B | c3 c2 c | A2 A d2 d | B3 e2 d | (cd)e (dc)B | c3 | z2!f! z | %66
w: bate, I must|length- *|* then the de-|bate, Mis- ter|Speak- er, though 'tis|late, I must|length- * en the _ de-|bate.||
 c2 G c2 G | d2 B z3 | d2 B d2 G | e2 c G2 c | !fermata!B3 z2 z | z2!mp! z EFG | (AB)^c d2 A | %73
w: Ques- tion, ques- tion,|ques- tion,|ques- tion, ques- tion,|hear him! Hear him!|hear!|Sir, I shall|name _ you if you|
 D3 z FE | D3 DEF | (GA)B c2 G | C3 CDE | F2 F DEF | G2 G EFG | A2 E F2 G | C3 | z2 z | %82
w: stir, if you|stir, Sir, I shall|name _ you if you|stir, Sir I shall|name you, Sir I shall|name you, Sir I shall|name you if you|stir.||
 z2!ff! z e2 c | g2 d g2!ffff! e | g2 d g2 d | g2 e (gf)e | !fermata!d3!mp! e2 f | g2 g g3 | %88
w: Or- der,|or- der, or- der,|hear him! hear him!|hear him! hear _ him!|hear! pray sup-|port the chair,|
 g2 g{g} f2 e | f3 d2 e | f2 f f3 | f2 f e2 d | e3 e2 e | c2 c f2 f | d3 g2 f | (ef)g (fe)d | e3 | %97
w: pray sup- * the|chair, pray sup-|port the chair,|pray sup- port the|chair, Ques- tion,|Or- der, hear him!|hear! pray sup-|port, _ sup- port _ the|chair...|
 x6 | %98
w: |

